X:16
T:Wohlfahrt 16 Op 45 No 14
C:Franz Wohlfahrt / K.H. Aiquoni
L:1/8
Q:1/4=110
M:6/8
I:linebreak $
K:D
"^16""D" (A,B,C DEF) |"A7" (G3 FGA) | (Bcd edB) |"D" (d3 fba) |"A7" (a3 egb) |"D" (a3 Adc) |$ 
"G" (Bed"A7" cBc) |"D" (dBA FDB,) |"D" (A,B,C DEF) |"A7" (G3 FGA) | (Bcd edB) |"D" (d3 fba) |$ 
"E7" (^gfg efg) |"A" (aec ABc) |"E7" (Bcd EF^G) |"A" (Ace a^ga) ||$"A7" (b^ab =gfg) | (ecB Aga) | 
"A7" (b^ab =gfg) | (ecB AGE) |$"D" (DFA dcd) |"G6" (Be=g =bge) |"D" (afd"A7" ABc) | 
"D" (dAF DCB,) |$"A7" (A,CE GAc) | (^dec AEC) |"A7" (A,CE GAc) | (^dec AGE) |$"D" (DFA dfa) | 
"G" (bge BGE) |"D" (AA,A"A7" A,B,C) |"D" D3- D z z |] 



